X: 10602
M: C|
L: 1/16
K: Bb
uF2 |\
(.B3.c)(B2d2) F2B2 GFED | BF3 B3d cC3-"_>"C2uA2 |\
(.B3.c) (B2d2) F2B2 GFED | Eg3 f3e dB3-"_>"B2 :|
uf2 |\
d2f2 edcB b2B2e2g2 | f3g edcB dc3- c2de |\
f2B2d2B2 g2B2e2g2 | F2B2 (dcBc) (d2B2)B2d2 |
f2ga (b2B2) g2B2f2B2 | (.e3.c) (edcB) A2c2{dcB}c2d2 |\


